X:1
T:Mr. Menzies of Culdare
M:C
L:1/8
R:Reel
B: Joseph Lowe - Lowe's Collection of Reels, Strathspeys and Jigs,
B:book 6 (1844-45, p. 9)
Z:AK/Fiddler’s Companion
K:D
A|(FD)AF (BG)AF|E=cGc E=CCA|(FD)AF (BG)AF|FdAd FDD:|
g|(f/g/a) da (fd)af|(e/f/g) =cg (ec)ge|(f/g/a) da (fd)ad|(B/c/d) Ad (FD)Dg|
(f/g/a) da (fd)af|(e/f/g) =cg (ec)ge|afge fdec|(d/c/B/c/) dA FDD||

